src/Pure/16/symbolic/actions/multimedia-equalizer-symbolic.svg

<svg width="16" height="16" enable-background="new" version="1.1" xmlns="http://www.w3.org/2000/svg">
 <g fill="#363636">
  <path d="m2.5 1c-0.277 0-0.5 0.223-0.5 0.5v6.5547a2.5 2.5 0 0 1 0.5-0.054688 2.5 2.5 0 0 1 0.5 0.050781v-6.5508c0-0.277-0.223-0.5-0.5-0.5zm0.5 11.945a2.5 2.5 0 0 1-0.5 0.054688 2.5 2.5 0 0 1-0.5-0.050781v1.5508c0 0.277 0.223 0.5 0.5 0.5s0.5-0.223 0.5-0.5v-1.5547z"/>
  <path d="m7.5 1c-0.277 0-0.5 0.223-0.5 0.5v1.5547a2.5 2.5 0 0 1 0.5-0.054688 2.5 2.5 0 0 1 0.5 0.050781v-1.5508c0-0.277-0.223-0.5-0.5-0.5zm0.5 6.9453a2.5 2.5 0 0 1-0.5 0.054688 2.5 2.5 0 0 1-0.5-0.050781v6.5508c0 0.277 0.223 0.5 0.5 0.5s0.5-0.223 0.5-0.5v-6.5547z"/>
  <path d="m12.5 1c-0.277 0-0.5 0.223-0.5 0.5v6.5547a2.5 2.5 0 0 1 0.5-0.054688 2.5 2.5 0 0 1 0.5 0.050781v-6.5508c0-0.277-0.223-0.5-0.5-0.5zm0.5 11.945a2.5 2.5 0 0 1-0.5 0.054688 2.5 2.5 0 0 1-0.5-0.050781v1.5508c0 0.277 0.223 0.5 0.5 0.5s0.5-0.223 0.5-0.5v-1.5547z"/>
  <circle cx="2.5" cy="10.5" r="1.5"/>
  <circle cx="7.5" cy="5.5" r="1.5"/>
  <circle cx="12.5" cy="10.5" r="1.5"/>
 </g>
</svg>

<?xml version="1.0" encoding="UTF-8" standalone="no"?>
<svg
   width="16"
   height="16"
   enable-background="new"
   version="1.1"
   id="svg5"
   sodipodi:docname="multimedia-equalizer-symbolic.svg"
   inkscape:version="1.4.2 (ebf0e940d0, 2025-05-08)"
   xmlns:inkscape="http://www.inkscape.org/namespaces/inkscape"
   xmlns:sodipodi="http://sodipodi.sourceforge.net/DTD/sodipodi-0.dtd"
   xmlns="http://www.w3.org/2000/svg"
   xmlns:svg="http://www.w3.org/2000/svg">
  <defs
     id="defs5">
     <style
        id="current-color-scheme"
        type="text/css">
        .ColorScheme-Text { color:#363636; }
     </style>
  </defs>
  <sodipodi:namedview
     id="namedview5"
     pagecolor="#ffffff"
     bordercolor="#000000"
     borderopacity="0.25"
     inkscape:showpageshadow="2"
     inkscape:pageopacity="0.0"
     inkscape:pagecheckerboard="0"
     inkscape:deskcolor="#d1d1d1"
     inkscape:zoom="49.6875"
     inkscape:cx="8"
     inkscape:cy="8"
     inkscape:window-width="1920"
     inkscape:window-height="1010"
     inkscape:window-x="0"
     inkscape:window-y="0"
     inkscape:window-maximized="1"
     inkscape:current-layer="svg5" />
  <path
     id="path1"
     style="fill:currentColor"
     class="ColorScheme-Text"
     d="M 2.5 1 C 2.223 1 2 1.223 2 1.5 L 2 8.0546875 A 2.5 2.5 0 0 1 2.5 8 A 2.5 2.5 0 0 1 3 8.0507812 L 3 1.5 C 3 1.223 2.777 1 2.5 1 z M 7.5 1 C 7.223 1 7 1.223 7 1.5 L 7 3.0546875 A 2.5 2.5 0 0 1 7.5 3 A 2.5 2.5 0 0 1 8 3.0507812 L 8 1.5 C 8 1.223 7.777 1 7.5 1 z M 12.5 1 C 12.223 1 12 1.223 12 1.5 L 12 8.0546875 A 2.5 2.5 0 0 1 12.5 8 A 2.5 2.5 0 0 1 13 8.0507812 L 13 1.5 C 13 1.223 12.777 1 12.5 1 z M 7.5 4 A 1.5 1.5 0 0 0 6 5.5 A 1.5 1.5 0 0 0 7.5 7 A 1.5 1.5 0 0 0 9 5.5 A 1.5 1.5 0 0 0 7.5 4 z M 8 7.9453125 A 2.5 2.5 0 0 1 7.5 8 A 2.5 2.5 0 0 1 7 7.9492188 L 7 14.5 C 7 14.777 7.223 15 7.5 15 C 7.777 15 8 14.777 8 14.5 L 8 7.9453125 z M 2.5 9 A 1.5 1.5 0 0 0 1 10.5 A 1.5 1.5 0 0 0 2.5 12 A 1.5 1.5 0 0 0 4 10.5 A 1.5 1.5 0 0 0 2.5 9 z M 12.5 9 A 1.5 1.5 0 0 0 11 10.5 A 1.5 1.5 0 0 0 12.5 12 A 1.5 1.5 0 0 0 14 10.5 A 1.5 1.5 0 0 0 12.5 9 z M 3 12.945312 A 2.5 2.5 0 0 1 2.5 13 A 2.5 2.5 0 0 1 2 12.949219 L 2 14.5 C 2 14.777 2.223 15 2.5 15 C 2.777 15 3 14.777 3 14.5 L 3 12.945312 z M 13 12.945312 A 2.5 2.5 0 0 1 12.5 13 A 2.5 2.5 0 0 1 12 12.949219 L 12 14.5 C 12 14.777 12.223 15 12.5 15 C 12.777 15 13 14.777 13 14.5 L 13 12.945312 z " />
</svg>
